flaticon/sport/kayak.svg

<svg xmlns="http://www.w3.org/2000/svg" width="32" height="32" viewBox="0 0 24 24">
    <path d="M17.894531 5.179688L17.09375 5.179688 17.09375 5.980469 16.292969 5.980469 16.292969 6.78125 17.09375 6.78125 17.09375 7.582031 17.894531 7.582031 17.894531 6.78125 18.695312 6.78125 18.695312 5.980469 17.894531 5.980469zM20.296875 2.777344L19.496094 2.777344 19.496094 3.578125 18.695312 3.578125 18.695312 4.378906 19.496094 4.378906 19.496094 5.179688 20.296875 5.179688 20.296875 4.378906 21.097656 4.378906 21.097656 3.578125 20.296875 3.578125zM3.878906 19.195312L3.078125 19.195312 3.078125 19.996094 2.277344 19.996094 2.277344 20.796875 3.078125 20.796875 3.078125 21.597656 3.878906 21.597656 3.878906 20.796875 4.679688 20.796875 4.679688 19.996094 3.878906 19.996094zM6.28125 16.792969L5.480469 16.792969 5.480469 17.59375 4.679688 17.59375 4.679688 18.394531 5.480469 18.394531 5.480469 19.195312 6.28125 19.195312 6.28125 18.394531 7.082031 18.394531 7.082031 17.59375 6.28125 17.59375zM6.28125 16.792969"/>
    <path d="M 23.566406 0.53125 C 23.285156 0.25 22.859375 0.140625 22.402344 0.230469 L 19.691406 0.753906 C 16.296875 1.414062 12.863281 3.101562 9.738281 5.640625 L 5.148438 0.355469 C 4.777344 -0.0742188 4.125 -0.121094 3.695312 0.253906 L 1.230469 2.390625 C 0.800781 2.765625 0.753906 3.417969 1.125 3.847656 L 5.929688 9.386719 C 3.222656 12.605469 1.429688 16.164062 0.742188 19.703125 L 0.121094 22.910156 C 0.0585938 23.238281 0.140625 23.542969 0.347656 23.753906 C 0.507812 23.914062 0.730469 24 0.976562 24 C 1.046875 24 1.117188 23.992188 1.1875 23.980469 L 4.398438 23.355469 C 8.082031 22.640625 11.90625 20.652344 15.210938 17.738281 L 17.871094 20.664062 L 17.75 20.769531 C 17.082031 21.347656 17.011719 22.363281 17.589844 23.03125 C 17.867188 23.351562 18.257812 23.546875 18.6875 23.578125 C 18.726562 23.578125 18.761719 23.582031 18.800781 23.582031 C 19.1875 23.582031 19.554688 23.445312 19.847656 23.191406 L 21.894531 21.414062 C 22.5625 20.835938 22.632812 19.820312 22.054688 19.152344 C 21.777344 18.832031 21.386719 18.636719 20.957031 18.605469 C 20.535156 18.578125 20.117188 18.714844 19.796875 18.992188 L 19.792969 18.996094 L 17.039062 15.976562 C 20.332031 12.5 22.570312 8.410156 23.34375 4.410156 L 23.871094 1.695312 C 23.960938 1.238281 23.847656 0.816406 23.566406 0.53125 Z M 20.84375 19.402344 C 20.863281 19.402344 20.882812 19.40625 20.902344 19.40625 C 21.117188 19.421875 21.3125 19.519531 21.453125 19.679688 C 21.742188 20.011719 21.703125 20.519531 21.371094 20.808594 L 19.324219 22.585938 C 18.992188 22.875 18.484375 22.839844 18.195312 22.503906 C 17.90625 22.171875 17.941406 21.664062 18.273438 21.375 L 20.320312 19.597656 C 20.46875 19.472656 20.652344 19.402344 20.84375 19.402344 Z M 4.246094 22.570312 L 1.035156 23.191406 C 0.960938 23.207031 0.921875 23.195312 0.914062 23.1875 C 0.90625 23.175781 0.894531 23.136719 0.90625 23.0625 L 1.527344 19.855469 C 2.171875 16.535156 3.917969 13.050781 6.460938 9.996094 L 7.445312 11.128906 C 7.492188 11.183594 7.546875 11.230469 7.601562 11.28125 C 6.253906 13.421875 6.148438 15.625 7.371094 16.847656 C 7.9375 17.414062 8.726562 17.6875 9.621094 17.6875 C 10.886719 17.6875 12.355469 17.128906 13.699219 16.078125 L 14.675781 17.148438 C 11.480469 19.964844 7.789062 21.882812 4.246094 22.570312 Z M 11.199219 13.332031 L 11.675781 13.851562 L 13.164062 15.488281 C 11.210938 17.003906 9.011719 17.355469 7.9375 16.28125 C 7.011719 15.355469 7.148438 13.527344 8.25 11.753906 C 8.273438 11.765625 8.300781 11.773438 8.328125 11.785156 C 8.40625 11.820312 8.484375 11.859375 8.566406 11.890625 C 8.6875 11.933594 8.816406 11.96875 8.945312 11.996094 C 9.792969 12.160156 10.59375 12.632812 11.199219 13.332031 Z M 18.453125 20.113281 L 15.808594 17.207031 L 11.792969 12.796875 C 11.75 12.746094 11.703125 12.699219 11.660156 12.652344 C 11.613281 12.601562 11.566406 12.546875 11.515625 12.5 C 11.441406 12.425781 11.363281 12.359375 11.285156 12.292969 C 11.261719 12.273438 11.242188 12.25 11.21875 12.230469 C 11.214844 12.230469 11.214844 12.226562 11.214844 12.226562 C 11.113281 12.144531 11.011719 12.066406 10.90625 11.992188 C 10.902344 11.988281 10.902344 11.988281 10.898438 11.984375 C 10.351562 11.601562 9.738281 11.332031 9.097656 11.210938 C 9.097656 11.210938 9.097656 11.207031 9.09375 11.207031 C 8.96875 11.183594 8.847656 11.144531 8.730469 11.09375 C 8.722656 11.089844 8.710938 11.085938 8.703125 11.082031 C 8.585938 11.027344 8.472656 10.960938 8.363281 10.882812 L 8.25 10.804688 C 8.179688 10.742188 8.113281 10.675781 8.050781 10.605469 L 6.457031 8.769531 L 1.730469 3.324219 C 1.648438 3.226562 1.660156 3.078125 1.753906 2.996094 L 4.21875 0.855469 C 4.261719 0.820312 4.316406 0.800781 4.371094 0.800781 C 4.433594 0.800781 4.5 0.828125 4.542969 0.878906 L 10.863281 8.164062 C 10.925781 8.234375 10.980469 8.308594 11.03125 8.390625 L 11.089844 8.5 C 11.148438 8.609375 11.191406 8.71875 11.230469 8.832031 C 11.238281 8.859375 11.246094 8.886719 11.253906 8.914062 C 11.265625 8.953125 11.273438 8.992188 11.28125 9.03125 C 11.296875 9.117188 11.308594 9.199219 11.316406 9.285156 C 11.367188 10.328125 11.789062 11.355469 12.515625 12.1875 L 14.976562 14.894531 L 19.164062 19.496094 Z M 12.0625 8.851562 C 12.042969 8.761719 12.015625 8.675781 11.988281 8.589844 C 11.980469 8.5625 11.976562 8.535156 11.96875 8.511719 C 13.425781 7.902344 14.757812 7.972656 15.503906 8.71875 C 16.503906 9.71875 16.242188 11.78125 14.925781 13.648438 L 13.113281 11.65625 C 12.886719 11.398438 12.699219 11.117188 12.546875 10.816406 C 12.292969 10.324219 12.140625 9.785156 12.117188 9.246094 C 12.109375 9.113281 12.089844 8.980469 12.0625 8.851562 Z M 23.085938 1.542969 L 22.558594 4.257812 C 21.816406 8.089844 19.671875 12.027344 16.503906 15.382812 L 15.472656 14.25 C 17.128906 12 17.394531 9.476562 16.070312 8.152344 C 15.074219 7.15625 13.382812 7.03125 11.589844 7.800781 C 11.550781 7.746094 11.515625 7.691406 11.46875 7.636719 L 10.261719 6.246094 C 13.277344 3.796875 16.585938 2.171875 19.84375 1.539062 L 22.554688 1.015625 C 22.75 0.976562 22.90625 1.007812 23 1.097656 C 23.09375 1.191406 23.121094 1.347656 23.085938 1.542969 Z M 23.085938 1.542969"/>
</svg>

<svg xmlns="http://www.w3.org/2000/svg" width="32" height="32" viewBox="0 0 24 24">
    <path d="M17.895 5.18h-.801v.8h-.801v.801h.8v.801h.802v-.8h.8V5.98h-.8zm0 0M20.297 2.777h-.8v.801h-.802v.8h.801v.802h.8v-.801h.802v-.8h-.801zm0 0M3.879 19.195h-.8v.801h-.802v.8h.801v.802h.8v-.801h.802v-.8h-.801zm0 0M6.281 16.793h-.8v.8H4.68v.802h.8v.8h.801v-.8h.801v-.801h-.8zm0 0"/>
    <path d="M23.566.531c-.28-.281-.707-.39-1.164-.3l-2.71.523c-3.395.66-6.829 2.348-9.954 4.887L5.148.355A1.028 1.028 0 0 0 3.695.254L1.23 2.39a1.037 1.037 0 0 0-.105 1.457L5.93 9.387c-2.707 3.218-4.5 6.777-5.188 10.316l-.62 3.207c-.063.328.019.633.226.844.16.16.382.246.629.246.07 0 .14-.008.21-.02l3.211-.625c3.684-.714 7.508-2.703 10.813-5.617l2.66 2.926-.121.106a1.606 1.606 0 0 0-.16 2.261c.277.32.668.516 1.098.547.039 0 .074.004.113.004.387 0 .754-.137 1.047-.39l2.047-1.778a1.606 1.606 0 0 0 .16-2.262 1.596 1.596 0 0 0-1.098-.547c-.422-.027-.84.11-1.16.387l-.004.004-2.754-3.02C20.332 12.5 22.57 8.41 23.344 4.41l.527-2.715c.09-.457-.023-.879-.305-1.164zm-2.722 18.871c.02 0 .039.004.058.004.215.016.41.114.551.274.29.332.25.84-.082 1.129l-2.047 1.777a.802.802 0 0 1-1.05-1.21l2.046-1.778a.812.812 0 0 1 .524-.196zM4.246 22.57l-3.21.621c-.075.016-.114.004-.122-.003-.008-.012-.02-.051-.008-.125l.621-3.208c.645-3.32 2.391-6.804 4.934-9.859l.984 1.133c.047.055.102.101.157.152-1.348 2.14-1.454 4.344-.23 5.567.566.566 1.355.84 2.25.84 1.265 0 2.733-.56 4.077-1.61l.977 1.07c-3.196 2.817-6.887 4.735-10.43 5.422zm6.953-9.238l.477.52 1.488 1.636c-1.953 1.516-4.152 1.867-5.226.793-.926-.926-.79-2.754.312-4.527.023.012.05.02.078.031.078.035.156.074.238.106.121.043.25.078.38.105.847.164 1.648.637 2.253 1.336zm7.254 6.781l-2.644-2.906-4.016-4.41c-.043-.05-.09-.098-.133-.145-.047-.05-.094-.105-.144-.152a3.8 3.8 0 0 0-.23-.207c-.024-.02-.044-.043-.067-.063-.004 0-.004-.003-.004-.003a5.832 5.832 0 0 0-.309-.235l-.008-.008a4.666 4.666 0 0 0-1.8-.773s0-.004-.004-.004a1.703 1.703 0 0 1-.364-.113l-.027-.012a2.144 2.144 0 0 1-.34-.2l-.113-.077a2.397 2.397 0 0 1-.2-.2L6.458 8.77 1.73 3.324a.238.238 0 0 1 .024-.328L4.219.856A.243.243 0 0 1 4.37.8c.063 0 .129.027.172.078l6.32 7.285c.063.07.117.145.168.227l.059.109c.058.11.101.219.14.332l.024.082c.012.04.02.078.027.117.016.086.028.168.035.254.051 1.043.473 2.07 1.2 2.902l2.46 2.708 4.188 4.601zm-6.39-11.261a2.876 2.876 0 0 0-.075-.262c-.008-.027-.011-.055-.02-.078 1.458-.61 2.79-.54 3.536.207 1 1 .738 3.062-.578 4.93l-1.813-1.993a4.014 4.014 0 0 1-.566-.84 3.809 3.809 0 0 1-.43-1.57 2.663 2.663 0 0 0-.055-.394zm11.023-7.309l-.527 2.715c-.743 3.832-2.887 7.77-6.055 11.125l-1.031-1.133c1.656-2.25 1.922-4.773.597-6.098-.996-.996-2.687-1.12-4.48-.351-.04-.055-.074-.11-.121-.164l-1.207-1.39c3.015-2.45 6.324-4.075 9.582-4.708l2.71-.523c.196-.04.352-.008.446.082.094.093.121.25.086.445zm0 0"/>
</svg>
